X: 79
T:Maid at the spinning 
R:Jig
S:Posted by Andre
M:6/8
L:1/8
Q:3/8=120
K:G
D|G3 B2G|BcA B2D|G3 cAG|F3 AFD|
G3 B2G|BcA B2g|fed cAF|G3 G2:|
c|BAG AFD|D3 AFD|D3 AFD|EFG ABc|
BAG AFD|D3 AFD|ded cAF|G3 G2:|
D|GBd gba|gdB ecA|dBG cAG|F3 AFD|
GBd gba|gdB ecA|ded cAF|G3 G2:|
c|BAG Afd|Bfd Afd|Bfd AFD|EFG ABc|
BAG AFD|D3 AFD|ded cAF|G3 G2:|
